elements/app-hax/lib/assets/images/Silence.svg

<svg xmlns="http://www.w3.org/2000/svg" fill="none" width="61" height="60" viewBox="0 0 61 60"><path d="M1 16h12v19H1V16Zm12-4h4v27h-4V12Zm4-4h4v35h-4V8Zm4-4h4v43h-4V4Zm4-4h4v51h-4V0Zm10.5 34.5V32H38v-2.5h2.5V27H43v-2.5h-2.5V22H38v-2.5h-2.5V17h5v2.5H43V22h2.5v2.5H48V27h-2.5v2.5H43V32h-2.5v2.5h-5Z" fill="#000"/><path d="M57.5 34.5V32H55v-2.5h-2.5V27H50v-2.5h2.5V22H55v-2.5h2.5V17h-5v2.5H50V22h-2.5v2.5H45V27h2.5v2.5H50V32h2.5v2.5h5Z" fill="#000"/></svg>

<svg width="61" height="60" viewBox="0 0 61 60" fill="none" xmlns="http://www.w3.org/2000/svg">
<path d="M1 16H13V35H1V16Z" fill="black"/>
<path d="M13 12H17V39H13V12Z" fill="black"/>
<path d="M17 8H21V43H17V8Z" fill="black"/>
<path d="M21 4H25V47H21V4Z" fill="black"/>
<path d="M25 0H29V51H25V0Z" fill="black"/>
<path d="M35.5 34.5V32H38V29.5H40.5V27H43V24.5H40.5V22H38V19.5H35.5V17H40.5V19.5H43V22H45.5V24.5H48V27H45.5V29.5H43V32H40.5V34.5H35.5Z" fill="black"/>
<path d="M57.5 34.5V32H55V29.5H52.5V27H50V24.5H52.5V22H55V19.5H57.5V17H52.5V19.5H50V22H47.5V24.5H45V27H47.5V29.5H50V32H52.5V34.5H57.5Z" fill="black"/>
</svg>
